;FLAVOR:Marlin
;TIME:5393
;Filament used: 7.94604m
;Layer height: 0.25
;Generated with Cura_SteamEngine 3.4.1
M190 S70
M104 S255
M109 S255
M82 ;absolute extrusion mode
G28 ; Home XYZ
; M420 Z2 - Fade ABL Height at 2mm
; G29 ABL - Run ABL
G92 E0 ;  Zero Extruder
G1 F6000 X0 Y0 Z0.3 E6 ; Move to X0 Y0 and purge 6mm of filament
G92 E0 ; Zero extruder
G1 ; Print
M117 ->> V-King Rocks! <<-
G92 E0
G1 F3600 E-6
;LAYER_COUNT:97
;LAYER:0
M107
G0 F3168 X93.274 Y155.514 Z0.25
;TYPE:SKIRT
G1 F3600 E0
G1 F1320 X94.091 Y155.076 E0.04629
G1 X94.943 Y154.709 E0.09262
G1 X95.823 Y154.418 E0.13891
G1 X96.725 Y154.203 E0.18522
G1 X97.642 Y154.067 E0.23151
G1 X98.757 Y154.009 E0.28727
G1 X136.04 Y154 E2.14917
G1 X136.295 Y154.003 E2.1619
G1 X139.4 Y154.076 E2.31701
G1 X182.729 Y154.01 E4.48085
G1 X183.655 Y154.049 E4.52713
G1 X184.575 Y154.167 E4.57345
G1 X185.481 Y154.364 E4.61976
G1 X186.366 Y154.638 E4.66602
G1 X187.225 Y154.988 E4.71234
G1 X188.05 Y155.41 E4.75862
G1 X188.836 Y155.902 E4.80493
G1 X189.577 Y156.46 E4.85125
G1 X190.363 Y157.176 E4.90435
G1 X194.359 Y161.19 E5.18721
G1 X194.985 Y161.874 E5.23351
G1 X195.548 Y162.61 E5.27979
G1 X196.047 Y163.392 E5.32611
G1 X196.476 Y164.214 E5.37242
G1 X196.833 Y165.07 E5.41873
G1 X197.114 Y165.953 E5.46501
G1 X197.319 Y166.857 E5.5113
G1 X197.445 Y167.776 E5.55763
G1 X197.491 Y168.774 E5.60752
G1 X197.49 Y202.741 E7.30382
G1 X197.45 Y203.668 E7.35015
G1 X197.33 Y204.587 E7.39644
G1 X197.132 Y205.493 E7.44275
G1 X196.856 Y206.378 E7.48905
G1 X196.505 Y207.236 E7.53534
G1 X196.081 Y208.061 E7.58167
G1 X195.588 Y208.846 E7.62796
G1 X195.029 Y209.586 E7.67427
G1 X194.345 Y210.339 E7.72508
G1 X190.35 Y214.338 E8.00736
G1 X189.667 Y214.965 E8.05367
G1 X188.933 Y215.531 E8.09995
G1 X188.152 Y216.031 E8.14627
G1 X187.332 Y216.462 E8.19253
G1 X186.477 Y216.821 E8.23884
G1 X185.594 Y217.106 E8.28517
G1 X184.691 Y217.312 E8.33143
G1 X183.772 Y217.441 E8.37777
G1 X182.745 Y217.49 E8.42912
G1 X148.751 Y217.49 E10.12677
G1 X148.51 Y217.487 E10.1388
G1 X141.382 Y217.327 E10.49486
G1 X136.56 Y217.494 E10.73582
G1 X136.185 Y217.5 E10.75455
G1 X102.756 Y217.49 E12.42398
G1 X101.83 Y217.45 E12.47026
G1 X100.91 Y217.33 E12.5166
G1 X100.005 Y217.131 E12.56287
G1 X99.119 Y216.855 E12.60922
G1 X98.261 Y216.504 E12.65551
G1 X97.437 Y216.08 E12.70179
G1 X96.652 Y215.587 E12.74808
G1 X95.912 Y215.028 E12.7944
G1 X95.162 Y214.346 E12.84502
G1 X91.163 Y210.352 E13.12728
G1 X90.536 Y209.669 E13.17358
G1 X89.97 Y208.935 E13.21987
G1 X89.47 Y208.155 E13.26613
G1 X89.038 Y207.334 E13.31246
G1 X88.679 Y206.479 E13.35877
G1 X88.395 Y205.597 E13.40505
G1 X88.188 Y204.693 E13.45136
G1 X88.059 Y203.775 E13.49766
G1 X88.01 Y202.746 E13.5491
G1 X88.01 Y164.759 E15.44616
G1 X88.05 Y163.833 E15.49245
G1 X88.17 Y162.913 E15.53878
G1 X88.368 Y162.008 E15.58504
G1 X88.644 Y161.122 E15.63139
G1 X88.995 Y160.264 E15.67768
G1 X89.418 Y159.44 E15.72394
G1 X89.911 Y158.654 E15.77027
G1 X90.47 Y157.915 E15.81655
G1 X91.091 Y157.226 E15.86287
G1 X91.769 Y156.593 E15.90919
G1 X92.498 Y156.021 E15.95547
G1 X93.274 Y155.514 E16.00176
G0 F3168 X93.751 Y155.816
G1 F1320 X94.56 Y155.409 E16.04698
G1 X95.401 Y155.075 E16.09217
G1 X96.269 Y154.816 E16.13741
G1 X97.156 Y154.635 E16.18262
G1 X98.055 Y154.533 E16.2278
G1 X98.758 Y154.509 E16.26293
G1 X136.041 Y154.5 E18.12483
G1 X136.283 Y154.503 E18.13692
G1 X139.388 Y154.576 E18.29202
G1 X182.729 Y154.51 E20.45646
G1 X183.634 Y154.549 E20.5017
G1 X184.531 Y154.667 E20.54688
G1 X185.415 Y154.864 E20.59211
G1 X186.278 Y155.138 E20.63732
G1 X187.113 Y155.487 E20.68252
G1 X187.914 Y155.909 E20.72773
G1 X188.675 Y156.4 E20.77296
G1 X189.39 Y156.955 E20.81816
G1 X190.009 Y157.528 E20.86029
G1 X194.005 Y161.542 E21.14314
G1 X194.615 Y162.212 E21.18839
G1 X195.163 Y162.932 E21.23358
G1 X195.646 Y163.698 E21.2788
G1 X196.059 Y164.503 E21.32399
G1 X196.399 Y165.342 E21.36919
G1 X196.665 Y166.208 E21.41444
G1 X196.852 Y167.094 E21.45966
G1 X196.961 Y167.992 E21.50483
G1 X196.991 Y168.774 E21.54391
G1 X196.99 Y202.741 E23.24021
G1 X196.95 Y203.646 E23.28545
G1 X196.83 Y204.543 E23.33065
G1 X196.632 Y205.426 E23.37584
G1 X196.356 Y206.289 E23.42109
G1 X196.006 Y207.123 E23.46626
G1 X195.583 Y207.924 E23.51149
G1 X195.091 Y208.684 E23.55671
G1 X194.534 Y209.398 E23.60193
G1 X193.991 Y209.985 E23.64186
G1 X189.996 Y213.984 E23.92415
G1 X189.329 Y214.596 E23.96936
G1 X188.61 Y215.146 E24.01457
G1 X187.846 Y215.631 E24.05976
G1 X187.041 Y216.046 E24.10499
G1 X186.203 Y216.389 E24.15021
G1 X185.338 Y216.657 E24.19543
G1 X184.453 Y216.847 E24.24063
G1 X183.555 Y216.958 E24.28582
G1 X182.745 Y216.99 E24.3263
G1 X148.751 Y216.99 E26.02395
G1 X148.521 Y216.987 E26.03544
G1 X141.376 Y216.827 E26.39235
G1 X136.542 Y216.994 E26.6339
G1 X136.185 Y217 E26.65173
G1 X102.756 Y216.99 E28.32116
G1 X101.852 Y216.95 E28.36635
G1 X100.954 Y216.83 E28.4116
G1 X100.071 Y216.631 E28.4568
G1 X99.209 Y216.355 E28.502
G1 X98.374 Y216.005 E28.54721
G1 X97.574 Y215.582 E28.59241
G1 X96.814 Y215.09 E28.63762
G1 X96.1 Y214.532 E28.68287
G1 X95.516 Y213.992 E28.7226
G1 X91.517 Y209.998 E29.00485
G1 X90.905 Y209.331 E29.05006
G1 X90.355 Y208.612 E29.09526
G1 X89.87 Y207.848 E29.14046
G1 X89.454 Y207.043 E29.18571
G1 X89.111 Y206.205 E29.23093
G1 X88.844 Y205.341 E29.27609
G1 X88.654 Y204.455 E29.32134
G1 X88.542 Y203.557 E29.36653
G1 X88.51 Y202.746 E29.40707
G1 X88.51 Y164.759 E31.30412
G1 X88.55 Y163.855 E31.34931
G1 X88.67 Y162.957 E31.39456
G1 X88.868 Y162.074 E31.43975
G1 X89.143 Y161.211 E31.48498
G1 X89.494 Y160.377 E31.53017
G1 X89.917 Y159.576 E31.57541
G1 X90.409 Y158.816 E31.62062
G1 X90.966 Y158.102 E31.66584
G1 X91.583 Y157.441 E31.711
G1 X92.257 Y156.836 E31.75623
G1 X92.982 Y156.293 E31.80147
G1 X93.751 Y155.816 E31.84666
G1 F3600 E25.84666
G0 F3168 X98.271 Y164.12
G0 X98.292 Y164.159
G0 X109.016 Y183.859
G0 X109.037 Y183.898
G0 X109.066 Y183.948
G0 X107.183 Y183.607
;TYPE:WALL-INNER
G1 F3600 E31.84666
G1 F1320 X107.178 Y183.628 E31.84774
G1 X107.043 Y184.702 E31.90179
G1 X107.001 Y185.783 E31.95582
G1 X107.048 Y186.863 E32.0098
G1 X107.188 Y187.939 E32.06399
G1 X107.42 Y188.997 E32.11808
G1 X107.74 Y190.029 E32.17204
G1 X108.147 Y191.034 E32.22619
G1 X108.636 Y191.996 E32.28008
G1 X109.205 Y192.918 E32.33419
G1 X109.853 Y193.788 E32.38836
G1 X110.57 Y194.596 E32.44231
G1 X111.351 Y195.342 E32.49625
G1 X112.195 Y196.021 E32.55034
G1 X113.094 Y196.625 E32.60443
G1 X114.041 Y197.152 E32.65855
G1 X115.028 Y197.593 E32.71254
G1 X116.05 Y197.951 E32.76662
G1 X117.076 Y198.214 E32.81951
G1 X117.097 Y198.22 E32.82061
G1 X118.164 Y198.402 E32.87466
G1 X119.243 Y198.49 E32.92872
G1 X120.325 Y198.487 E32.98276
G1 X121.403 Y198.392 E33.0368
G1 X122.47 Y198.206 E33.09089
G1 X123.516 Y197.931 E33.1449
G1 X124.536 Y197.568 E33.19897
G1 X125.519 Y197.119 E33.25294
G1 X126.463 Y196.59 E33.30698
G1 X127.359 Y195.981 E33.36108
G1 X128.2 Y195.299 E33.41516
G1 X128.977 Y194.547 E33.46916
G1 X129.69 Y193.735 E33.52312
G1 X130.332 Y192.862 E33.57724
G1 X130.899 Y191.938 E33.63138
G1 X131.382 Y190.971 E33.68536
G1 X131.782 Y189.965 E33.73943
G1 X131.787 Y189.946 E33.74041
G1 X132.097 Y188.93 E33.79345
G1 X132.317 Y187.893 E33.84639
G1 X132.322 Y187.872 E33.84747
G1 X132.457 Y186.798 E33.90153
G1 X132.499 Y185.717 E33.95556
G1 X132.452 Y184.637 E34.00954
G1 X132.312 Y183.561 E34.06373
G1 X132.08 Y182.503 E34.11782
G1 X131.76 Y181.471 E34.17178
G1 X131.353 Y180.466 E34.22593
G1 X130.864 Y179.504 E34.27982
G1 X130.295 Y178.582 E34.33393
G1 X129.647 Y177.712 E34.3881
G1 X128.93 Y176.904 E34.44205
G1 X128.149 Y176.158 E34.49599
G1 X127.305 Y175.479 E34.55008
G1 X126.406 Y174.875 E34.60417
G1 X125.459 Y174.348 E34.65829
G1 X124.472 Y173.907 E34.71228
G1 X123.45 Y173.549 E34.76636
G1 X122.424 Y173.286 E34.81925
G1 X122.403 Y173.28 E34.82034
G1 X121.336 Y173.098 E34.8744
G1 X120.257 Y173.01 E34.92846
G1 X119.175 Y173.013 E34.9825
G1 X118.097 Y173.108 E35.03654
G1 X117.03 Y173.294 E35.09063
G1 X115.984 Y173.569 E35.14464
G1 X114.964 Y173.932 E35.19871
G1 X113.981 Y174.381 E35.25268
G1 X113.037 Y174.91 E35.30672
G1 X112.141 Y175.519 E35.36082
G1 X111.3 Y176.201 E35.4149
G1 X110.523 Y176.953 E35.4689
G1 X109.81 Y177.765 E35.52286
G1 X109.168 Y178.638 E35.57698
G1 X108.601 Y179.562 E35.63112
G1 X108.118 Y180.529 E35.6851
G1 X107.718 Y181.535 E35.73916
G1 X107.713 Y181.554 E35.74014
G1 X107.403 Y182.57 E35.79319
G1 X107.183 Y183.607 E35.84613
G0 F3168 X107.671 Y183.711
G1 F1320 X107.542 Y184.743 E35.89807
G1 X107.501 Y185.782 E35.95
G1 X107.547 Y186.82 E36.00189
G1 X107.681 Y187.853 E36.05391
G1 X107.904 Y188.869 E36.10585
G1 X108.211 Y189.861 E36.15771
G1 X108.602 Y190.826 E36.20971
G1 X109.072 Y191.751 E36.26152
G1 X109.619 Y192.637 E36.31352
G1 X110.241 Y193.472 E36.36552
G1 X110.93 Y194.249 E36.41738
G1 X111.681 Y194.966 E36.46924
G1 X112.492 Y195.618 E36.5212
G1 X113.355 Y196.198 E36.57313
G1 X114.265 Y196.704 E36.62513
G1 X115.213 Y197.128 E36.67699
G1 X116.195 Y197.472 E36.72895
G1 X117.201 Y197.731 E36.78083
G1 X118.226 Y197.905 E36.83275
G1 X119.263 Y197.99 E36.88471
G1 X120.302 Y197.987 E36.9366
G1 X121.338 Y197.896 E36.98853
G1 X122.363 Y197.717 E37.0405
G1 X123.368 Y197.453 E37.09239
G1 X124.348 Y197.104 E37.14434
G1 X125.293 Y196.673 E37.19621
G1 X126.2 Y196.164 E37.24815
G1 X127.06 Y195.579 E37.30009
G1 X127.868 Y194.924 E37.35204
G1 X128.615 Y194.202 E37.40392
G1 X129.3 Y193.421 E37.4558
G1 X129.917 Y192.583 E37.50777
G1 X130.461 Y191.695 E37.55977
G1 X130.925 Y190.766 E37.61163
G1 X131.31 Y189.8 E37.66357
G1 X131.612 Y188.805 E37.71549
G1 X131.829 Y187.789 E37.76738
G1 X131.958 Y186.757 E37.81932
G1 X131.999 Y185.718 E37.87124
G1 X131.953 Y184.68 E37.92313
G1 X131.819 Y183.647 E37.97515
G1 X131.596 Y182.631 E38.0271
G1 X131.289 Y181.639 E38.07896
G1 X130.898 Y180.674 E38.13095
G1 X130.428 Y179.749 E38.18277
G1 X129.881 Y178.863 E38.23477
G1 X129.259 Y178.028 E38.28677
G1 X128.57 Y177.251 E38.33863
G1 X127.819 Y176.534 E38.39048
G1 X127.008 Y175.882 E38.44245
G1 X126.145 Y175.302 E38.49437
G1 X125.235 Y174.796 E38.54637
G1 X124.287 Y174.372 E38.59823
G1 X123.305 Y174.028 E38.6502
G1 X122.299 Y173.769 E38.70207
G1 X121.274 Y173.595 E38.75399
G1 X120.237 Y173.51 E38.80596
G1 X119.198 Y173.513 E38.85784
G1 X118.162 Y173.604 E38.90978
G1 X117.137 Y173.783 E38.96174
G1 X116.132 Y174.047 E39.01363
G1 X115.152 Y174.396 E39.06559
G1 X114.207 Y174.827 E39.11746
G1 X113.3 Y175.336 E39.1694
G1 X112.44 Y175.921 E39.22134
G1 X111.632 Y176.576 E39.27328
G1 X110.885 Y177.298 E39.32516
G1 X110.2 Y178.079 E39.37704
G1 X109.583 Y178.917 E39.42901
G1 X109.039 Y179.805 E39.48102
G1 X108.575 Y180.734 E39.53288
G1 X108.19 Y181.7 E39.58481
G1 X107.888 Y182.695 E39.63674
G1 X107.671 Y183.711 E39.68862
G0 F3168 X108.164 Y183.794
;TYPE:WALL-OUTER
G1 F1320 X108.041 Y184.784 E39.73844
G1 X108.001 Y185.781 E39.78827
G1 X108.046 Y186.777 E39.83806
G1 X108.174 Y187.767 E39.88791
G1 X108.388 Y188.741 E39.93772
G1 X108.682 Y189.693 E39.98747
G1 X109.057 Y190.618 E40.03732
G1 X109.508 Y191.506 E40.08706
G1 X110.033 Y192.356 E40.13695
G1 X110.629 Y193.156 E40.18677
G1 X111.29 Y193.902 E40.23655
G1 X112.011 Y194.59 E40.28631
G1 X112.789 Y195.215 E40.33615
G1 X113.616 Y195.771 E40.38592
G1 X114.489 Y196.256 E40.43579
G1 X115.398 Y196.663 E40.48553
G1 X116.34 Y196.993 E40.53538
G1 X117.305 Y197.242 E40.58515
G1 X118.288 Y197.408 E40.63493
G1 X119.283 Y197.49 E40.68479
G1 X120.279 Y197.487 E40.73453
G1 X121.273 Y197.4 E40.78436
G1 X122.256 Y197.228 E40.8342
G1 X123.22 Y196.975 E40.88397
G1 X124.16 Y196.64 E40.9338
G1 X125.067 Y196.227 E40.98357
G1 X125.937 Y195.739 E41.03339
G1 X126.761 Y195.178 E41.08317
G1 X127.536 Y194.549 E41.13302
G1 X128.253 Y193.857 E41.18278
G1 X128.91 Y193.107 E41.23257
G1 X129.502 Y192.304 E41.2824
G1 X130.023 Y191.452 E41.33227
G1 X130.468 Y190.561 E41.38201
G1 X130.838 Y189.635 E41.43181
G1 X131.127 Y188.68 E41.48163
G1 X131.336 Y187.706 E41.53138
G1 X131.459 Y186.716 E41.5812
G1 X131.499 Y185.719 E41.63103
G1 X131.454 Y184.723 E41.68082
G1 X131.326 Y183.733 E41.73067
G1 X131.112 Y182.759 E41.78048
G1 X130.818 Y181.807 E41.83023
G1 X130.443 Y180.882 E41.88008
G1 X129.992 Y179.994 E41.92982
G1 X129.467 Y179.144 E41.97971
G1 X128.871 Y178.344 E42.02953
G1 X128.21 Y177.598 E42.07931
G1 X127.489 Y176.91 E42.12908
G1 X126.711 Y176.285 E42.17891
G1 X125.884 Y175.729 E42.22868
G1 X125.011 Y175.244 E42.27855
G1 X124.102 Y174.837 E42.32829
G1 X123.16 Y174.507 E42.37814
G1 X122.195 Y174.258 E42.42791
G1 X121.212 Y174.092 E42.47769
G1 X120.217 Y174.01 E42.52755
G1 X119.221 Y174.013 E42.57729
G1 X118.227 Y174.1 E42.62712
G1 X117.244 Y174.272 E42.67696
G1 X116.28 Y174.525 E42.72673
G1 X115.34 Y174.86 E42.77656
G1 X114.433 Y175.273 E42.82633
G1 X113.563 Y175.761 E42.87615
G1 X112.739 Y176.322 E42.92593
G1 X111.964 Y176.951 E42.97578
G1 X111.247 Y177.643 E43.02554
G1 X110.59 Y178.393 E43.07533
G1 X109.998 Y179.196 E43.12516
G1 X109.477 Y180.048 E43.17503
G1 X109.032 Y180.939 E43.22477
G1 X108.662 Y181.865 E43.27457
G1 X108.373 Y182.82 E43.32439
G1 X108.164 Y183.794 E43.37414
G0 F3168 X108.134 Y184.042
G0 X107.588 Y183.974
G1 F3600 E37.37414
G0 F3168 X109.041 Y184.153
G0 X108.952 Y184.553
G0 X108.938 Y184.616
G0 X105.314 Y201.087
G0 X105.305 Y201.131
G0 X105.28 Y201.243
G0 X107.207 Y201.229
;TYPE:WALL-INNER
G1 F3600 E43.37414
G1 F1320 X107.131 Y200.594 E43.40608
G1 X106.925 Y199.991 E43.4379
G1 X106.59 Y199.445 E43.46989
G1 X106.149 Y198.983 E43.50179
G1 X105.617 Y198.629 E43.5337
G1 X105.023 Y198.395 E43.56558
G1 X104.391 Y198.298 E43.59752
G1 X103.753 Y198.335 E43.62943
G1 X103.137 Y198.511 E43.66142
G1 X102.574 Y198.815 E43.69338
G1 X102.089 Y199.232 E43.72532
G1 X101.706 Y199.744 E43.75725
G1 X101.442 Y200.325 E43.78912
G1 X101.31 Y200.948 E43.82092
G1 X101.312 Y201.59 E43.85299
G1 X101.456 Y202.213 E43.88492
G1 X101.727 Y202.792 E43.91684
G1 X102.118 Y203.296 E43.9487
G1 X102.606 Y203.707 E43.98056
G1 X103.174 Y204.002 E44.01252
G1 X103.789 Y204.171 E44.04438
G1 X104.428 Y204.201 E44.07632
G1 X105.061 Y204.094 E44.10838
G1 X105.653 Y203.853 E44.1403
G1 X106.179 Y203.49 E44.17222
G1 X106.614 Y203.024 E44.20405
G1 X106.942 Y202.473 E44.23608
G1 X107.141 Y201.866 E44.26798
G1 X107.207 Y201.229 E44.29996
G0 F3168 X106.704 Y201.233
G1 F1320 X106.641 Y200.706 E44.32647
G1 X106.47 Y200.205 E44.3529
G1 X106.192 Y199.752 E44.37945
G1 X105.826 Y199.369 E44.4059
G1 X105.384 Y199.075 E44.43241
G1 X104.892 Y198.881 E44.45882
G1 X104.367 Y198.8 E44.48535
G1 X103.837 Y198.831 E44.51187
G1 X103.327 Y198.977 E44.53836
G1 X102.859 Y199.229 E44.5649
G1 X102.457 Y199.575 E44.59139
G1 X102.139 Y200 E44.6179
G1 X101.92 Y200.482 E44.64434
G1 X101.81 Y201 E44.67078
G1 X101.812 Y201.532 E44.69735
G1 X101.931 Y202.049 E44.72384
G1 X102.156 Y202.529 E44.75032
G1 X102.481 Y202.948 E44.7768
G1 X102.886 Y203.289 E44.80324
G1 X103.357 Y203.534 E44.82975
G1 X103.868 Y203.674 E44.85621
G1 X104.398 Y203.699 E44.88271
G1 X104.923 Y203.61 E44.9093
G1 X105.414 Y203.41 E44.93578
G1 X105.851 Y203.109 E44.96228
G1 X106.212 Y202.722 E44.98871
G1 X106.484 Y202.265 E45.01527
G1 X106.649 Y201.761 E45.04175
G1 X106.704 Y201.233 E45.06826
G0 F3168 X106.201 Y201.237
;TYPE:WALL-OUTER
G1 F1320 X106.151 Y200.818 E45.08934
G1 X106.015 Y200.419 E45.11039
G1 X105.794 Y200.059 E45.13148
G1 X105.503 Y199.755 E45.1525
G1 X105.151 Y199.521 E45.17361
G1 X104.76 Y199.367 E45.19459
G1 X104.343 Y199.302 E45.21567
G1 X103.922 Y199.327 E45.23673
G1 X103.516 Y199.443 E45.25782
G1 X103.144 Y199.643 E45.27891
G1 X102.825 Y199.918 E45.29994
G1 X102.572 Y200.256 E45.32103
G1 X102.398 Y200.639 E45.34204
G1 X102.31 Y201.052 E45.36312
G1 X102.312 Y201.474 E45.3842
G1 X102.406 Y201.885 E45.40525
G1 X102.585 Y202.266 E45.42628
G1 X102.844 Y202.6 E45.44738
G1 X103.166 Y202.871 E45.4684
G1 X103.54 Y203.066 E45.48947
G1 X103.947 Y203.177 E45.51053
G1 X104.368 Y203.197 E45.53158
G1 X104.785 Y203.126 E45.55271
G1 X105.175 Y202.967 E45.57374
G1 X105.523 Y202.728 E45.59482
G1 X105.81 Y202.42 E45.61585
G1 X106.026 Y202.057 E45.63694
G1 X106.157 Y201.656 E45.65801
G1 X106.201 Y201.237 E45.67905
