;FLAVOR:Marlin
;TIME:334
;Filament used: 0.697159m
;Layer height: 0.3
;Generated with Cura_SteamEngine 3.4.1
M190 S60
M104 S200
M109 S200
M82 ;absolute extrusion mode
G28 ;Home
; M420 Z2  fade
; G29  ABL
G92 E0 ;
G1 F6000 X0 Y0 Z0.3 E6
G92 E0
G1
M117 ->> V-King Rocks! <<-
G92 E0
G1 F3600 E-6
;LAYER_COUNT:34
;LAYER:0
M107
G0 F3600 X143.018 Y166.843 Z0.3
;TYPE:SKIRT
G1 F3600 E0
G1 F1800 X143.747 Y166.271 E0.05779
G1 X144.523 Y165.764 E0.11559
G1 X145.34 Y165.326 E0.1734
G1 X146.192 Y164.959 E0.23126
G1 X147.072 Y164.668 E0.28906
G1 X147.974 Y164.453 E0.34689
G1 X148.891 Y164.317 E0.4047
G1 X150.009 Y164.259 E0.47451
G1 X179.991 Y164.26 E2.34427
G1 X180.918 Y164.3 E2.40214
G1 X181.837 Y164.42 E2.45994
G1 X182.743 Y164.618 E2.51777
G1 X183.628 Y164.894 E2.57558
G1 X184.486 Y165.245 E2.63339
G1 X185.311 Y165.669 E2.69124
G1 X186.096 Y166.162 E2.74905
G1 X186.836 Y166.721 E2.80688
G1 X187.524 Y167.341 E2.86464
G1 X188.157 Y168.019 E2.92249
G1 X188.729 Y168.748 E2.98027
G1 X189.236 Y169.525 E3.03813
G1 X189.674 Y170.342 E3.09594
G1 X190.041 Y171.193 E3.15374
G1 X190.332 Y172.074 E3.2116
G1 X190.547 Y172.976 E3.26943
G1 X190.683 Y173.893 E3.32724
G1 X190.741 Y175.01 E3.39699
G1 X190.741 Y204.991 E5.26669
G1 X190.701 Y205.917 E5.32449
G1 X190.581 Y206.837 E5.38235
G1 X190.383 Y207.742 E5.44012
G1 X190.107 Y208.628 E5.498
G1 X189.756 Y209.486 E5.55581
G1 X189.333 Y210.31 E5.61357
G1 X188.84 Y211.096 E5.67143
G1 X188.281 Y211.835 E5.72922
G1 X187.66 Y212.524 E5.78706
G1 X186.982 Y213.157 E5.84491
G1 X186.253 Y213.729 E5.90269
G1 X185.477 Y214.236 E5.9605
G1 X184.66 Y214.674 E6.01831
G1 X183.808 Y215.041 E6.07616
G1 X182.928 Y215.332 E6.13397
G1 X182.026 Y215.547 E6.19179
G1 X181.109 Y215.683 E6.2496
G1 X179.991 Y215.741 E6.31942
G1 X150.009 Y215.741 E8.18918
G1 X149.083 Y215.701 E8.24698
G1 X148.163 Y215.581 E8.30484
G1 X147.258 Y215.383 E8.36261
G1 X146.372 Y215.107 E8.42049
G1 X145.514 Y214.756 E8.4783
G1 X144.69 Y214.333 E8.53606
G1 X143.904 Y213.84 E8.59392
G1 X143.165 Y213.281 E8.65171
G1 X142.476 Y212.66 E8.70955
G1 X141.843 Y211.982 E8.7674
G1 X141.271 Y211.253 E8.82518
G1 X140.764 Y210.477 E8.88299
G1 X140.326 Y209.66 E8.9408
G1 X139.959 Y208.808 E8.99865
G1 X139.668 Y207.928 E9.05646
G1 X139.453 Y207.026 E9.11428
G1 X139.317 Y206.109 E9.1721
G1 X139.259 Y204.991 E9.24191
G1 X139.259 Y175.009 E11.11167
G1 X139.299 Y174.083 E11.16947
G1 X139.419 Y173.163 E11.22733
G1 X139.617 Y172.258 E11.28511
G1 X139.893 Y171.372 E11.34298
G1 X140.244 Y170.514 E11.40079
G1 X140.667 Y169.69 E11.45855
G1 X141.16 Y168.904 E11.51641
G1 X141.719 Y168.165 E11.5742
G1 X142.34 Y167.476 E11.63204
G1 X143.018 Y166.843 E11.68989
G0 F3600 X143.506 Y167.086
G1 F1800 X144.231 Y166.543 E11.74638
G1 X145 Y166.066 E11.80281
G1 X145.809 Y165.659 E11.85929
G1 X146.65 Y165.325 E11.91572
G1 X147.518 Y165.066 E11.97221
G1 X148.405 Y164.885 E12.02866
G1 X149.304 Y164.783 E12.08509
G1 X150.009 Y164.759 E12.12908
G1 X179.991 Y164.76 E13.99884
G1 X180.896 Y164.8 E14.05533
G1 X181.793 Y164.92 E14.11177
G1 X182.676 Y165.118 E14.1682
G1 X183.539 Y165.394 E14.22471
G1 X184.374 Y165.744 E14.28117
G1 X185.174 Y166.167 E14.33761
G1 X185.934 Y166.659 E14.39407
G1 X186.648 Y167.216 E14.45054
G1 X187.31 Y167.834 E14.50702
G1 X187.914 Y168.507 E14.56341
G1 X188.457 Y169.232 E14.6199
G1 X188.934 Y170.001 E14.67633
G1 X189.341 Y170.81 E14.73281
G1 X189.675 Y171.651 E14.78924
G1 X189.934 Y172.519 E14.84573
G1 X190.115 Y173.406 E14.90219
G1 X190.217 Y174.306 E14.95867
G1 X190.241 Y175.01 E15.0026
G1 X190.241 Y204.991 E16.8723
G1 X190.201 Y205.895 E16.92873
G1 X190.081 Y206.793 E16.98523
G1 X189.883 Y207.676 E17.04166
G1 X189.608 Y208.539 E17.09815
G1 X189.257 Y209.373 E17.15458
G1 X188.834 Y210.174 E17.21107
G1 X188.342 Y210.934 E17.26753
G1 X187.785 Y211.648 E17.324
G1 X187.168 Y212.309 E17.38039
G1 X186.494 Y212.914 E17.43687
G1 X185.769 Y213.457 E17.49336
G1 X185 Y213.934 E17.5498
G1 X184.191 Y214.341 E17.60627
G1 X183.35 Y214.675 E17.6627
G1 X182.482 Y214.934 E17.71919
G1 X181.595 Y215.115 E17.77565
G1 X180.696 Y215.217 E17.83207
G1 X179.991 Y215.241 E17.87606
G1 X150.009 Y215.241 E19.74582
G1 X149.105 Y215.201 E19.80225
G1 X148.207 Y215.081 E19.85875
G1 X147.324 Y214.883 E19.91519
G1 X146.461 Y214.608 E19.97167
G1 X145.627 Y214.257 E20.0281
G1 X144.826 Y213.834 E20.08459
G1 X144.066 Y213.342 E20.14105
G1 X143.352 Y212.785 E20.19753
G1 X142.691 Y212.168 E20.25392
G1 X142.086 Y211.494 E20.3104
G1 X141.543 Y210.769 E20.36689
G1 X141.066 Y210 E20.42332
G1 X140.659 Y209.191 E20.4798
G1 X140.325 Y208.35 E20.53623
G1 X140.066 Y207.482 E20.59272
G1 X139.885 Y206.595 E20.64917
G1 X139.783 Y205.696 E20.7056
G1 X139.759 Y204.991 E20.74959
G1 X139.759 Y175.009 E22.61935
G1 X139.799 Y174.105 E22.67578
G1 X139.919 Y173.207 E22.73228
G1 X140.117 Y172.324 E22.78871
G1 X140.392 Y171.461 E22.8452
G1 X140.743 Y170.627 E22.90163
G1 X141.166 Y169.826 E22.95812
G1 X141.658 Y169.066 E23.01458
G1 X142.215 Y168.352 E23.07105
G1 X142.832 Y167.691 E23.12744
G1 X143.506 Y167.086 E23.18392
G1 F3600 E17.18392
G0 F3600 X180.653 Y174.347
G0 X180.665 Y204.25
G0 X179.25 Y204.25
;TYPE:WALL-INNER
G1 F3600 E23.18392
G1 F1800 X150.75 Y204.25 E24.96126
G1 X150.75 Y175.75 E26.7386
G1 X179.25 Y175.75 E28.51594
G1 X179.25 Y204.25 E30.29328
G0 F3600 X179.75 Y204.75
;TYPE:WALL-OUTER
G1 F1800 X150.25 Y204.75 E32.13298
G1 X150.25 Y175.25 E33.97268
G1 X179.75 Y175.25 E35.81238
G1 X179.75 Y204.75 E37.65208
G0 F3600 X179.5 Y204.75
G0 X178.76 Y203.76
;TYPE:SKIN
G1 F1800 X151.24 Y203.76 E39.3683
G1 X151.24 Y176.24 E41.08453
G1 X178.76 Y176.24 E42.80075
G1 X178.76 Y203.76 E44.51697
G1 F3600 E38.51697
G0 F3600 X180.665 Y203.76
G0 X180.665 Y177.12
G0 X178.534 Y177.12
G1 F3600 E44.51697
G1 F1800 X177.879 Y176.464 E44.57478
G0 F3600 X177.171 Y176.464
G1 F1800 X178.534 Y177.827 E44.69499
G1 X178.622 Y177.915
G0 F3600 X178.534 Y178.534
G1 F1800 X176.464 Y176.464 E44.87756
G1 X176.376 Y176.376
G0 F3600 X175.757 Y176.464
G1 F1800 X178.534 Y179.241 E45.12247
G1 X178.622 Y179.329
G0 F3600 X178.534 Y179.948
G1 F1800 X175.05 Y176.464 E45.42974
G1 X174.962 Y176.376
G0 F3600 X174.343 Y176.464
G1 F1800 X178.534 Y180.655 E45.79936
G1 X178.622 Y180.743
G0 F3600 X178.534 Y181.362
G1 F1800 X173.636 Y176.464 E46.23134
G1 X173.548 Y176.376
G0 F3600 X172.929 Y176.464
G1 F1800 X178.534 Y182.07 E46.72571
G1 X178.622 Y182.158
G0 F3600 X178.534 Y182.777
G1 F1800 X172.222 Y176.464 E47.28244
G1 X172.134 Y176.376
G0 F3600 X171.515 Y176.464
G1 F1800 X178.534 Y183.484 E47.90152
G1 X178.622 Y183.572
G0 F3600 X178.534 Y184.191
G1 F1800 X170.808 Y176.464 E48.58295
G1 X170.72 Y176.376
G0 F3600 X170.1 Y176.464
G1 F1800 X178.534 Y184.898 E49.32678
G1 X178.622 Y184.986
G0 F3600 X178.534 Y185.605
G1 F1800 X169.393 Y176.464 E50.13296
G1 X169.305 Y176.376
G0 F3600 X168.686 Y176.464
G1 F1800 X178.534 Y186.312 E51.0015
G1 X178.622 Y186.4
G0 F3600 X178.534 Y187.019
G1 F1800 X167.979 Y176.464 E51.93239
G1 X167.891 Y176.376
G0 F3600 X167.272 Y176.464
G1 F1800 X178.534 Y187.726 E52.92563
G1 X178.622 Y187.814
G0 F3600 X178.534 Y188.434
G1 F1800 X166.565 Y176.464 E53.98127
G1 X166.477 Y176.376
G0 F3600 X165.858 Y176.464
G1 F1800 X178.534 Y189.141 E55.09927
G1 X178.622 Y189.229
G0 F3600 X178.534 Y189.848
G1 F1800 X165.151 Y176.464 E56.27962
G1 X165.063 Y176.376
G0 F3600 X164.444 Y176.464
G1 F1800 X178.535 Y190.556 E57.52241
G1 X178.623 Y190.644
G0 F3600 X178.535 Y191.263
G1 F1800 X163.736 Y176.464 E58.82759
G1 X163.648 Y176.376
G0 F3600 X163.029 Y176.464
G1 F1800 X178.535 Y191.97 E60.19513
G1 X178.623 Y192.058
G0 F3600 X178.535 Y192.677
G1 F1800 X162.322 Y176.464 E61.62503
G1 X162.234 Y176.376
G0 F3600 X161.615 Y176.464
G1 F1800 X178.535 Y193.384 E63.11727
G1 X178.623 Y193.472
G0 F3600 X178.535 Y194.091
G1 F1800 X160.908 Y176.464 E64.67187
G1 X160.82 Y176.376
G0 F3600 X160.201 Y176.464
G1 F1800 X178.535 Y194.798 E66.28883
G1 X178.623 Y194.886
G0 F3600 X178.535 Y195.505
G1 F1800 X159.494 Y176.464 E67.96813
G1 X159.406 Y176.376
G0 F3600 X158.787 Y176.464
G1 F1800 X178.535 Y196.212 E69.70979
G1 X178.623 Y196.3
G0 F3600 X178.535 Y196.92
G1 F1800 X158.08 Y176.464 E71.51385
G1 X157.992 Y176.376
G0 F3600 X157.372 Y176.464
G1 F1800 X178.535 Y197.627 E73.38031
G1 X178.623 Y197.715
G0 F3600 X178.535 Y198.334
G1 F1800 X156.665 Y176.464 E75.30911
G1 X156.577 Y176.376
G0 F3600 X155.958 Y176.464
G1 F1800 X178.535 Y199.041 E77.30028
G1 X178.623 Y199.129
G0 F3600 X178.535 Y199.748
G1 F1800 X155.251 Y176.464 E79.35379
G1 X155.163 Y176.376
G0 F3600 X154.544 Y176.464
G1 F1800 X178.535 Y200.455 E81.46966
G1 X178.623 Y200.543
G0 F3600 X178.535 Y201.162
G1 F1800 X153.837 Y176.464 E83.64788
G1 X153.749 Y176.376
G0 F3600 X153.13 Y176.464
G1 F1800 X178.535 Y201.869 E85.88846
G1 X178.623 Y201.957
G0 F3600 X178.535 Y202.576
G1 F1800 X152.423 Y176.464 E88.19138
G1 X152.335 Y176.376
G0 F3600 X151.716 Y176.464
G1 F1800 X178.535 Y203.284 E90.55671
G1 X178.623 Y203.372
G0 F3600 X178.078 Y203.534
G1 F1800 X151.464 Y176.92 E92.90391
G1 X151.376 Y176.832
G0 F3600 X151.464 Y177.627
G1 F1800 X177.371 Y203.534 E95.18876
G1 X177.459 Y203.622
G0 F3600 X176.664 Y203.534
G1 F1800 X151.464 Y178.334 E97.41126
G1 X151.376 Y178.246
G0 F3600 X151.464 Y179.041
G1 F1800 X175.957 Y203.534 E99.5714
G1 X176.045 Y203.622
G0 F3600 X175.25 Y203.534
G1 F1800 X151.464 Y179.748 E101.66919
G1 X151.376 Y179.66
G0 F3600 X151.464 Y180.455
G1 F1800 X174.542 Y203.534 E103.70458
G1 X174.63 Y203.622
G0 F3600 X173.835 Y203.534
G1 F1800 X151.464 Y181.162 E105.67761
G1 X151.376 Y181.074
G0 F3600 X151.464 Y181.869
G1 F1800 X173.128 Y203.534 E107.5883
G1 X173.216 Y203.622
G0 F3600 X172.421 Y203.534
G1 F1800 X151.464 Y182.577 E109.43659
G1 X151.376 Y182.489
G0 F3600 X151.464 Y183.284
G1 F1800 X171.714 Y203.534 E111.22252
G1 X171.802 Y203.622
G0 F3600 X171.007 Y203.534
G1 F1800 X151.464 Y183.991 E112.9461
G1 X151.376 Y183.903
G0 F3600 X151.464 Y184.698
G1 F1800 X170.3 Y203.534 E114.60733
G1 X170.388 Y203.622
G0 F3600 X169.593 Y203.534
G1 F1800 X151.464 Y185.405 E116.2062
G1 X151.376 Y185.317
G0 F3600 X151.464 Y186.112
G1 F1800 X168.886 Y203.534 E117.74272
G1 X168.974 Y203.622
G0 F3600 X168.178 Y203.534
G1 F1800 X151.464 Y186.819 E119.21684
G1 X151.376 Y186.731
G0 F3600 X151.464 Y187.526
G1 F1800 X167.471 Y203.534 E120.62861
G1 X167.559 Y203.622
G0 F3600 X166.764 Y203.534
G1 F1800 X151.464 Y188.233 E121.97803
G1 X151.376 Y188.145
G0 F3600 X151.464 Y188.941
G1 F1800 X166.057 Y203.534 E123.26505
G1 X166.145 Y203.622
G0 F3600 X165.35 Y203.534
G1 F1800 X151.464 Y189.648 E124.48971
G1 X151.376 Y189.56
G0 F3600 X151.464 Y190.355
G1 F1800 X164.643 Y203.534 E125.65202
G1 X164.731 Y203.622
G0 F3600 X163.936 Y203.534
G1 F1800 X151.464 Y191.062 E126.75198
G1 X151.376 Y190.974
G0 F3600 X151.464 Y191.769
G1 F1800 X163.229 Y203.534 E127.78959
G1 X163.317 Y203.622
G0 F3600 X162.522 Y203.534
G1 F1800 X151.464 Y192.476 E128.76484
G1 X151.376 Y192.388
G0 F3600 X151.464 Y193.183
G1 F1800 X161.815 Y203.534 E129.67774
G1 X161.903 Y203.622
G0 F3600 X161.107 Y203.534
G1 F1800 X151.464 Y193.89 E130.52824
G1 X151.376 Y193.802
G0 F3600 X151.464 Y194.597
G1 F1800 X160.4 Y203.534 E131.31639
G1 X160.488 Y203.622
G0 F3600 X159.693 Y203.534
G1 F1800 X151.464 Y195.305 E132.04214
G1 X151.376 Y195.217
G0 F3600 X151.464 Y196.012
G1 F1800 X158.986 Y203.534 E132.70554
G1 X159.074 Y203.622
G0 F3600 X158.279 Y203.534
G1 F1800 X151.464 Y196.719 E133.30658
G1 X151.376 Y196.631
G0 F3600 X151.464 Y197.426
G1 F1800 X157.572 Y203.534 E133.84527
G1 X157.66 Y203.622
G0 F3600 X156.865 Y203.534
G1 F1800 X151.464 Y198.133 E134.32161
G1 X151.376 Y198.045
G0 F3600 X151.464 Y198.84
G1 F1800 X156.158 Y203.534 E134.73559
G1 X156.246 Y203.622
G0 F3600 X155.451 Y203.534
G1 F1800 X151.464 Y199.547 E135.08722
G1 X151.376 Y199.459
G0 F3600 X151.464 Y200.254
G1 F1800 X154.743 Y203.534 E135.37646
G1 X154.831 Y203.622
G0 F3600 X154.036 Y203.534
G1 F1800 X151.464 Y200.961 E135.60333
G1 X151.376 Y200.873
G0 F3600 X151.464 Y201.668
G1 F1800 X153.329 Y203.534 E135.76786
G1 X153.417 Y203.622
G0 F3600 X152.622 Y203.534
G1 F1800 X151.464 Y202.376 E135.86999
G1 X151.376 Y202.288
G0 F3600 X151.464 Y203.083
G1 F1800 X151.915 Y203.534 E135.90977
G1 F3600 E129.90977
G0 F3600 X151.915 Y205.665
G0 X179.25 Y205.665
G0 X179.25 Y204.25
;TIME_ELAPSED:86.054580
;LAYER:1
M140 S60
M106 S255
G0 F5400 X179.25 Y204.25 Z0.6
;TYPE:WALL-INNER
G1 F3600 E135.90977
G1 F2700 X150.75 Y204.25 E137.6871
G1 X150.75 Y175.75 E139.46444
G1 X179.25 Y175.75 E141.24178
G1 X179.25 Y204.25 E143.01912
G0 F5400 X179.75 Y204.75
;TYPE:WALL-OUTER
G1 F1800 X150.25 Y204.75 E144.85882
G1 X150.25 Y175.25 E146.69852
G1 X179.75 Y175.25 E148.53822
G1 X179.75 Y204.75 E150.37792
G0 F5400 X179.5 Y204.75
G0 X178.76 Y203.76
;TYPE:SKIN
G1 F1800 X151.24 Y203.76 E152.09415
G1 X151.24 Y176.24 E153.81037
G1 X178.76 Y176.24 E155.52659
G1 X178.76 Y203.76 E157.24282
G0 F5400 X178.303 Y203.534
G1 F1800 X178.534 Y203.303 E157.26319
G0 F5400 X178.534 Y202.595
G1 F1800 X177.596 Y203.534 E157.34596
G1 X177.508 Y203.622
G0 F5400 X176.889 Y203.534
G1 F1800 X178.534 Y201.888 E157.49108
G1 X178.622 Y201.8
G0 F5400 X178.534 Y201.181
G1 F1800 X176.182 Y203.534 E157.69856
G1 X176.094 Y203.622
G0 F5400 X175.474 Y203.534
G1 F1800 X178.534 Y200.474 E157.96843
G1 X178.622 Y200.386
G0 F5400 X178.534 Y199.767
G1 F1800 X174.767 Y203.534 E158.30066
G1 X174.679 Y203.622
G0 F5400 X174.06 Y203.534
G1 F1800 X178.534 Y199.06 E158.69524
G1 X178.622 Y198.972
G0 F5400 X178.534 Y198.353
G1 F1800 X173.353 Y203.534 E159.15218
G1 X173.265 Y203.622
G0 F5400 X172.646 Y203.534
G1 F1800 X178.534 Y197.646 E159.67147
G1 X178.622 Y197.558
G0 F5400 X178.534 Y196.939
G1 F1800 X171.939 Y203.534 E160.25311
G1 X171.851 Y203.622
G0 F5400 X171.232 Y203.534
G1 F1800 X178.534 Y196.232 E160.8971
G1 X178.622 Y196.144
G0 F5400 X178.534 Y195.524
G1 F1800 X170.525 Y203.534 E161.60349
G1 X170.437 Y203.622
G0 F5400 X169.818 Y203.534
G1 F1800 X178.534 Y194.817 E162.37224
G1 X178.622 Y194.729
G0 F5400 X178.534 Y194.11
G1 F1800 X169.11 Y203.534 E163.20338
G1 X169.022 Y203.622
G0 F5400 X168.403 Y203.534
G1 F1800 X178.534 Y193.403 E164.09688
G1 X178.622 Y193.315
G0 F5400 X178.534 Y192.696
G1 F1800 X167.696 Y203.534 E165.05273
G1 X167.608 Y203.622
G0 F5400 X166.989 Y203.534
G1 F1800 X178.534 Y191.989 E166.07093
G1 X178.622 Y191.901
G0 F5400 X178.534 Y191.282
G1 F1800 X166.282 Y203.534 E167.15148
G1 X166.194 Y203.622
G0 F5400 X165.575 Y203.534
G1 F1800 X178.534 Y190.575 E168.29439
G1 X178.622 Y190.487
G0 F5400 X178.533 Y189.868
G1 F1800 X164.868 Y203.534 E169.49961
G1 X164.78 Y203.622
G0 F5400 X164.161 Y203.534
G1 F1800 X178.533 Y189.161 E170.76718
G1 X178.621 Y189.073
G0 F5400 X178.533 Y188.454
G1 F1800 X163.454 Y203.534 E172.09711
G1 X163.366 Y203.622
G0 F5400 X162.746 Y203.534
G1 F1800 X178.533 Y187.747 E173.48943
G1 X178.621 Y187.659
G0 F5400 X178.533 Y187.04
G1 F1800 X162.039 Y203.534 E174.94411
G1 X161.951 Y203.622
G0 F5400 X161.332 Y203.534
G1 F1800 X178.533 Y186.333 E176.46114
G1 X178.621 Y186.245
G0 F5400 X178.533 Y185.626
G1 F1800 X160.625 Y203.534 E178.04052
G1 X160.537 Y203.622
G0 F5400 X159.918 Y203.534
G1 F1800 X178.533 Y184.919 E179.68226
G1 X178.621 Y184.831
G0 F5400 X178.533 Y184.211
G1 F1800 X159.211 Y203.534 E181.38639
G1 X159.123 Y203.622
G0 F5400 X158.504 Y203.534
G1 F1800 X178.533 Y183.504 E183.15288
G1 X178.621 Y183.416
G0 F5400 X178.533 Y182.797
G1 F1800 X157.797 Y203.534 E184.98172
G1 X157.709 Y203.622
G0 F5400 X157.09 Y203.534
G1 F1800 X178.533 Y182.09 E186.87291
G1 X178.621 Y182.002
G0 F5400 X178.533 Y181.383
G1 F1800 X156.383 Y203.534 E188.82646
G1 X156.295 Y203.622
G0 F5400 X155.675 Y203.534
G1 F1800 X178.533 Y180.676 E190.8424
G1 X178.621 Y180.588
G0 F5400 X178.533 Y179.969
G1 F1800 X154.968 Y203.534 E192.9207
G1 X154.88 Y203.622
G0 F5400 X154.261 Y203.534
G1 F1800 X178.533 Y179.262 E195.06135
G1 X178.621 Y179.174
G0 F5400 X178.533 Y178.555
G1 F1800 X153.554 Y203.534 E197.26435
G1 X153.466 Y203.622
G0 F5400 X152.847 Y203.534
G1 F1800 X178.533 Y177.847 E199.52976
G1 X178.621 Y177.759
G0 F5400 X178.533 Y177.14
G1 F1800 X152.14 Y203.534 E201.85751
G1 X152.052 Y203.622
